!!!COM: Mozart, Wolfgang Amadeus
!!!OTL: Musikalische Würfelspiele, Kontre-Tänze
!!!SCA: K<sup>6</sup> Anh. C30.01 (K<sup>3</sup> Anh. 294d)
**kern	**kern
*staff2	*staff2
*clefF4	*clefG2
*M2/4	*M2/4
*MM110	*MM110
*>[A,A1,A,A2,B]	*>[A,A1,A,A2,B]
*>norep[A,A2,B]	*>norep[A,A2,B]
*>A	*>A
=105	=105
4C	16cc
.	16b
.	16cc
.	16dd
4C	16ee
.	16dd
.	16ee
.	16ff
=152	=152
4C	8gg
.	16ccc
.	16gg
4r	8ee
.	8cc
=40	=40
8G	16ff
.	16ee
8GG	16dd
.	16cc
8GG	16b
.	16cc
8GG	16dd
.	16b
=15	=15
4C	16cc
.	16ee
.	16gg
.	16ee
4C	8cc
.	8cc
=111	=111
4D	8d
.	16f#
.	16a
4D	8dd
.	8ff#
=92	=92
4G	8gg
.	8dd
4r	8b
.	8g
=132	=132
16C	8ee
16A	.
16F#	4cc
16A	.
16AA	.
16D	.
16C	16a
16D	16f#
=89	=89
*>A1	*>A1
4GG	4g 4b 4gg
16G	4r
16F	.
16E	.
16D	.
=89:|!	=89:|!
*>A2	*>A2
4GG	4g 4b 4gg
16GG	4r
16AA	.
16BB	.
16C#	.
=116||	=116||
*>B	*>B
8D	8dd
16C#	4ff#
16D	.
16Cn	.
16D	.
16C	8aa
16D	.
=79	=79
4BB 4G	8gg
.	16bb
.	16gg
4GG	8dd
.	16gg
.	16dd
=26	=26
4C	8ee
.	8cc
4C	8gg
.	8ee
=107	=107
16BB	8dd
16D	.
16G	4b
16D	.
16G	.
16F	.
16E	8g
16D	.
=75	=75
16C	4cc
16GG	.
16AA	.
16BB	.
16C	8cc
16GG	.
16AA	8cc
16BB	.
=48	=48
4C	8cc
.	16cc
.	16ee
4r	8gg
.	16gg
.	16ee
=108	=108
4G	16ff
.	16aa
.	16ff
.	16dd
4GG	16b
.	16dd
.	16b
.	16g
=65	=65
4C	8cc
.	8cc
4CC	4cc
==	==
*-	*-
